X:1
T:Title
%%score ( 1 2 ) { 3 | 4 }
L:1/8
Q:1/4=88
M:6/8
K:Db
V:1 treble nm="Grand Piano, Soprano"
V:2 treble 
V:3 bass nm="Choir Pad, Singing in the Storm"
V:4 bass 
V:1
 [DF]/[DF]/ [DF]2 [DF] [D_F]2 | [DF][DG][DF]- [DF]2- [DF]/ z/ | [DE]/D/ [B,D]2 [B,E] [B,D]2 | %3
w: By~C.~W.~James * * * *|||
 [B,E] F2- F-[D-F]>D | [FA]/[FA]/ [FA]2 [FA] [_F=G]2 | [FA][GB][FA]- [FA]2- [FA]/ z/ | %6
w: |||
 [FA]/[FA]/ [FB]2 [DF] [A,E]2 | [B,D] [CA]2- [CA]2- [CA]/ z/ | [AB]/[AB]/ [Fd]2 [Fd] [Ac]2 | %9
w: |||
 [GB][GB][FA]- [FA]2- [FA]/ z/ | [FA]/[FA]/ [Fd]2 [Gc] [Ad]2 | [Ae] [Af]2- [Af]2- [Af]/ z/ | %12
w: |||
 [Af]/[Af]/ [Af]2 [Af] [=Af]2 | [Fe][Fe][Fd]- [Fd]2- [Fd]/ z/ | [Ad]/[Ad]/[Ac]<[GB] [FA] [DF]2 | %15
w: |||
 z6 |[M:4/4] z[Q:1/4=80] z/ F/- F z z4 | z8 | z d3- d2 z2 | z8 | z d3- d2 z2 | z z/ f/- f6- | %22
w: |||||||
 f z z2 z2 z D | z8[K:bass] | z8 |] %25
w: |||
V:2
 x6 | x6 | x6 | z A,2- A, z z | x6 | x6 | x6 | x6 | x6 | x6 | x6 | x6 | x6 | x6 | x6 | %15
 [CE] D2- D3- |[M:4/4] D[FA]/A/- A-[EA]- [EA-]/[EA-]/ [FA-]3 | %17
 A[FA]/[FA]/- [FA][GB]- [GB]/[GB]/ [FA]2 d- | d<.d z A- A/G/F [DF][A,E] | %19
 [B,D] [CE]3- [CE]2- [CE]/ z/ F- | F<.A z F- F/G/A [Ac][Ad] | [Ae][Af]/A/- A=A- A/A/B/B/- B[_Ad]- | %22
 [Ad]/[Ad]/[Ac]- [Ac]/[GB]/[FA]- [FA]/F/ [DF]2 E- | [CE]D- D/[K:bass]_C/B,- B,/B,/ A,3- | %24
 A,2 z2 z4 |] %25
V:3
 A,/A,/ A,2 A, =G,2 | A,B,A,- A,2- A,/ z/ | G,/F,/ G,2 G, G,2 | G, F,2- F, A,2 | D/D/ D2 D D2 | %5
 DDD- D2- D/ z/ | D/D/ D2[K:bass] A, A,2 | =G, A,2- A,2- A,/ z/ | A,/A,/ A,2 A,[K:treble] D2 | %9
 DDD- D2- D/ z/ | D/D/ A,2 A, A,2 | C D2- D2- D/ z/ | D/D/ D2 D B,2 | A,DD- D2- D/ z/ | %14
 D/D/ D2 D[K:bass] A,2 | G, F,2- F,3- |[M:4/4] F,[K:treble]D/D/- DC- C/C/ D2[K:bass] F, | %17
 E,D/D/- D[K:treble]D- D/D/ .D3 | z2 z[K:bass] A,- A,/A,/A, A,A, | =G, A,2 A,- A,/A,/ .A,3 | %20
 z2 z A,- A,/A,/A, G,[K:treble]D | CD/D/- DC- C/C/D/D/- DD- | D/D/D- D/D/D- D/D/[K:bass] A,2 A, | %23
 G,F,- F,/A,/G,- G,/G,/ F,3- | F,2 z2 z4 |] %25
V:4
 D,/D,/ D,2 D, D,2 | D,D,D,- D,2- D,/ z/ | D,/D,/ G,,2 G,, G,,2 | G,, D,2- D,2- D,/ z/ | %4
 D,/D,/ D,2 D, D,2 | D,D,D,- D,2- D,/ z/ | D,/D,/ D,2 D, C,2 | B,, A,,2- A,,2- A,,/ z/ | %8
 C,/C,/ D,2 D, D,2 | D,D,D,- D,2- D,/ z/ | D,/D,/ D,2 E, F,2 | .A,3 z3 | z3 z D,2 | %13
 F,B,B,- B,2- B,/ z/ | D,/D,/ G,2 .A,3 | A,, D,2- D,3- |[M:4/4] D,D,/D,/- D,A,,- A,,/A,,/ .D,3 | %17
 z D,/D,/- D,G,,- G,,/G,,/ .D,3 | z2 z F,- F,/E,/D, D,C, | B,, A,,2 A,,- A,,/A,,/ .A,,3 | %20
 z2 z D,- D,/E,/F, z F, | E,D,/D,/- D,F,- F,/F,/B,/B,/- B,F,- | F,/F,/ G,2 F,- F,/ z/ z z A,,- | %23
 A,, D,3- D,2- D,/ z/ z | z8 |] %25

